img/agent-experience-new.svg

<svg viewBox="0 0 24 20" xmlns="http://www.w3.org/2000/svg"><g fill="#f2f1f2"><path d="m11.58 10.18a5.09 5.09 0 0 0 1.59-1.18 1.66 1.66 0 0 1 -.32 0 2.38 2.38 0 0 1 -.76-.13 4.29 4.29 0 0 1 -2.74 1 4.45 4.45 0 0 1 -4.35-4.52 4.44 4.44 0 0 1 4.35-4.5 4.34 4.34 0 0 1 3.65 1.95 2.41 2.41 0 0 1 .61-.58 5.17 5.17 0 0 0 -4.26-2.22 5.29 5.29 0 0 0 -5.21 5.35 5.35 5.35 0 0 0 3 4.85 9.63 9.63 0 0 0 -7.14 9.38.41.41 0 0 0 .41.42h18a.41.41 0 0 0 .41-.42 9.63 9.63 0 0 0 -7.24-9.4zm-10.75 9a8.71 8.71 0 0 1 8.58-8.39 8.7 8.7 0 0 1 8.59 8.36z"/><path d="m20.94 2.8a2.43 2.43 0 0 1 2.24 2.47 2.42 2.42 0 0 1 -2.24 2.46h-5.17a2.24 2.24 0 0 1 -1.13-.4.81.81 0 0 0 -.42-.12.86.86 0 0 0 -.46.14 1.69 1.69 0 0 1 -.49.23 3.86 3.86 0 0 0 .4-1.29 1 1 0 0 0 0-.35 2.5 2.5 0 0 1 -.11-.74 2.39 2.39 0 0 1 2.24-2.4h5.17m0-.84h-5.2a3.21 3.21 0 0 0 -3.06 3.24 3.53 3.53 0 0 0 .14 1c-.09.8-.57 1.67-1.17 1.8-.33.07.29.48 1.14.48a2.52 2.52 0 0 0 1.4-.42 3 3 0 0 0 1.55.51h5.17a3.26 3.26 0 0 0 3.06-3.3 3.26 3.26 0 0 0 -3.06-3.27z"/><ellipse cx="16.43" cy="5.27" rx=".6" ry=".61"/><ellipse cx="18.4" cy="5.27" rx=".6" ry=".61"/><ellipse cx="20.37" cy="5.27" rx=".6" ry=".61"/></g></svg>

<svg xmlns="http://www.w3.org/2000/svg" viewBox="0 0 24 20"><defs><style>.cls-1{fill:#f2f1f2;}</style></defs><title>Artboard 213</title><g id="Artwork"><path class="cls-1" d="M11.58,10.18A5.09,5.09,0,0,0,13.17,9a1.66,1.66,0,0,1-.32,0,2.38,2.38,0,0,1-.76-.13,4.29,4.29,0,0,1-2.74,1A4.45,4.45,0,0,1,5,5.35,4.44,4.44,0,0,1,9.35.85,4.34,4.34,0,0,1,13,2.8a2.41,2.41,0,0,1,.61-.58A5.17,5.17,0,0,0,9.35,0,5.29,5.29,0,0,0,4.14,5.35a5.35,5.35,0,0,0,3,4.85A9.63,9.63,0,0,0,0,19.58.41.41,0,0,0,.41,20h18a.41.41,0,0,0,.41-.42A9.63,9.63,0,0,0,11.58,10.18Zm-10.75,9a8.71,8.71,0,0,1,8.58-8.39A8.7,8.7,0,0,1,18,19.15Z"/><path class="cls-1" d="M20.94,2.8a2.43,2.43,0,0,1,2.24,2.47,2.42,2.42,0,0,1-2.24,2.46H15.77a2.24,2.24,0,0,1-1.13-.4.81.81,0,0,0-.42-.12.86.86,0,0,0-.46.14,1.69,1.69,0,0,1-.49.23,3.86,3.86,0,0,0,.4-1.29,1,1,0,0,0,0-.35,2.5,2.5,0,0,1-.11-.74,2.39,2.39,0,0,1,2.24-2.4h5.17m0-.84H15.77A3.21,3.21,0,0,0,12.71,5.2a3.53,3.53,0,0,0,.14,1C12.76,7,12.28,7.87,11.68,8c-.33.07.29.48,1.14.48a2.52,2.52,0,0,0,1.4-.42,3,3,0,0,0,1.55.51h5.17A3.26,3.26,0,0,0,24,5.27,3.26,3.26,0,0,0,20.94,2Z"/><ellipse class="cls-1" cx="16.43" cy="5.27" rx="0.6" ry="0.61"/><ellipse class="cls-1" cx="18.4" cy="5.27" rx="0.6" ry="0.61"/><ellipse class="cls-1" cx="20.37" cy="5.27" rx="0.6" ry="0.61"/></g></svg>
